icons/css3-fill.svg

<svg width="24" height="24" fill="none" xmlns="http://www.w3.org/2000/svg"><g clip-path="url(#a)"><path d="m5 3-.65 3.34h13.59L17.5 8.5H3.92l-.66 3.33h13.59l-.76 3.81-5.48 1.81-4.75-1.81.33-1.64H2.85l-.79 4 7.85 3 9.05-3 1.2-6.03.24-1.21L21.94 3H5Z" /></g><defs><clipPath id="a"><path fill="#fff" d="M0 0h24v24H0z"/></clipPath></defs></svg>

<svg xmlns="http://www.w3.org/2000/svg" width="24" height="24" fill="none"><g clip-path="url(#a)"><g><path fill="#121212" d="M5 3L4.35 6.34H17.94L17.5 8.5H3.92L3.26 11.83H16.85L16.09 15.64L10.61 17.45L5.86 15.64L6.19 14H2.85L2.06 18L9.91 21L18.96 18L20.16 11.97L20.4 10.76L21.94 3H5Z"/></g></g><defs><clipPath id="a"><rect width="24" height="24" fill="white"/></clipPath></defs></svg>
